01-price-cards-landing/assets/background.svg

<svg width="137" height="492" viewBox="0 0 137 492" fill="none" xmlns="http://www.w3.org/2000/svg">
<g opacity="0.1">
<path fill-rule="evenodd" clip-rule="evenodd" d="M426.639 6.33336H179.361L102.932 241.523L302.997 386.872L503.068 241.523L426.639 6.33336ZM99 242.795L176.937 3H429.063L507 242.795L302.997 391L99 242.795Z" fill="#373737"/>
<path fill-rule="evenodd" clip-rule="evenodd" d="M432.382 -1.90866H173.612L93.6278 244.121L302.997 396.183L512.372 244.121L432.382 -1.90866ZM90.9041 245.963L90 245.301L171.378 -5H434.628L516 245.301L302.997 400L90.9041 245.963Z" fill="#373737"/>
<path fill-rule="evenodd" clip-rule="evenodd" d="M438.124 -10.1678H167.876L84.3463 246.723L303 405.494L521.66 246.723L438.124 -10.1678ZM81 247.806L165.814 -13H440.191L525 247.806L303 409L81 247.806Z" fill="#373737"/>
<path fill-rule="evenodd" clip-rule="evenodd" d="M530.958 249.331L443.873 -18.4154H162.133L75.0417 249.331L303 414.811L530.958 249.331ZM72.7604 250.873L72 250.321L159.955 -20.1078L160.249 -21H445.751L534 250.321L303.76 417.453L303 418L72.7604 250.873Z" fill="#373737"/>
<path fill-rule="evenodd" clip-rule="evenodd" d="M449.618 -26.6688H156.382L65.7484 251.926L303.003 424.116L540.252 251.926L449.618 -26.6688ZM63 252.824L154.688 -29H451.312L543 252.824L303.003 427L63 252.824Z" fill="#373737"/>
<path fill-rule="evenodd" clip-rule="evenodd" d="M455.357 -34.9222H150.637L56.4434 254.539L303 433.433L549.551 254.539L455.357 -34.9222ZM54.6109 255.777L54 255.339L148.885 -36.2805L149.121 -37H456.879L551.764 254.62L552 255.339L303 436L54.6109 255.777Z" fill="#373737"/>
<path fill-rule="evenodd" clip-rule="evenodd" d="M461.108 -42.1755H144.892L47.1499 258.135L302.997 443.738L558.85 258.135L461.108 -42.1755ZM45.536 259.223L45 258.831L143.353 -43.3669L143.566 -44H462.434L560.798 258.198L561 258.831L302.997 446L45.536 259.223Z" fill="#373737"/>
<path fill-rule="evenodd" clip-rule="evenodd" d="M568.132 260.741L466.85 -50.4116H139.156L37.8677 260.741L303 453.049L568.132 260.741ZM36.4727 261.679L36 261.339L137.83 -51.4475L138.009 -52H467.997L569.821 260.792L570 261.339L303.467 454.655L303 455L36.4727 261.679Z" fill="#373737"/>
<path fill-rule="evenodd" clip-rule="evenodd" d="M472.595 -58.6706H133.405L28.5624 263.343L302.997 462.366L577.432 263.343L472.595 -58.6706ZM27.3863 264.138L27 263.85L132.292 -59.5338L132.436 -60H473.558L578.856 263.395L579 263.85L302.997 464L27.3863 264.138Z" fill="#373737"/>
<path fill-rule="evenodd" clip-rule="evenodd" d="M586.732 265.947L478.341 -66.9238H127.665L19.2685 265.947L303 471.665L586.732 265.947ZM18.3229 266.586L18 266.35L126.76 -67.6317L126.881 -68H479.125L587.879 265.982L588 266.35L303.323 472.764L303 473L18.3229 266.586Z" fill="#373737"/>
<path fill-rule="evenodd" clip-rule="evenodd" d="M596.02 269.161L484.081 -75.1814H121.919L9.97458 269.161L302.994 481.974L596.02 269.161ZM9.24797 269.651L9 269.479L121.319 -76H484.681L597 269.479L303.236 482.821L302.994 483L9.24797 269.651Z" fill="#373737"/>
<path fill-rule="evenodd" clip-rule="evenodd" d="M115.753 -84L115.69 -83.7982L0 271.981L0.173024 272.108L303 492L303.167 491.873L606 271.981L605.942 271.785L490.253 -84H115.753ZM0.674794 271.762L116.18 -83.4293H489.826L605.325 271.762L303 491.279L0.674794 271.762Z" fill="#373737"/>
</g>
</svg>

<svg width="137" height="492" viewBox="0 0 137 492" fill="none" xmlns="http://www.w3.org/2000/svg"><g opacity=".1" fill-rule="evenodd" clip-rule="evenodd" fill="#373737"><path d="M426.639 6.333H179.361l-76.429 235.19 200.065 145.349 200.071-145.349zM99 242.795 176.937 3h252.126L507 242.795 302.997 391z"/><path d="M432.382-1.909h-258.77l-79.984 246.03 209.369 152.062 209.375-152.062zM90.904 245.963l-.904-.662L171.378-5h263.25L516 245.301 302.997 400z"/><path d="M438.124-10.168H167.876l-83.53 256.891L303 405.494l218.66-158.771zM81 247.806 165.814-13h274.377L525 247.806 303 409z"/><path d="M530.958 249.331 443.873-18.415h-281.74L75.042 249.33 303 414.811zM72.76 250.873l-.76-.552 87.955-270.429.294-.892h285.502L534 250.321 303.76 417.453 303 418z"/><path d="M449.618-26.669H156.382L65.748 251.926l237.255 172.19 237.249-172.19zM63 252.824 154.688-29h296.624L543 252.824 303.003 427z"/><path d="M455.357-34.922h-304.72L56.443 254.539 303 433.433l246.551-178.894zM54.611 255.777l-.611-.438 94.885-291.62.236-.719h307.758l94.885 291.62.236.719L303 436z"/><path d="M461.108-42.175H144.892L47.15 258.135l255.847 185.603L558.85 258.135zM45.536 259.223l-.536-.392 98.353-302.198.213-.633h318.868l98.364 302.198.202.633L302.997 446z"/><path d="M568.132 260.741 466.85-50.412H139.156L37.868 260.741 303 453.049zm-531.66.938-.472-.34L137.83-51.447l.179-.553h329.988l101.824 312.792.179.547-266.533 193.316L303 455z"/><path d="M472.595-58.67h-339.19L28.562 263.342l274.435 199.023 274.435-199.023zM27.386 264.137 27 263.85 132.292-59.534l.144-.466h341.122l105.298 323.395.144.455L302.997 464z"/><path d="M586.732 265.947 478.341-66.923H127.665L19.269 265.946 303 471.665zm-568.41.639L18 266.35 126.76-67.632l.121-.368h352.244l108.754 333.982.121.368-284.677 206.414L303 473z"/><path d="M596.02 269.161 484.081-75.181H121.919L9.975 269.16l293.019 212.813zm-586.772.49L9 269.479 121.319-76h363.362L597 269.479 303.236 482.821l-.242.179z"/><path d="m115.753-84-.063.202L0 271.98l.173.127L303 492l.167-.127L606 271.981l-.058-.196L490.253-84zM.675 271.762 116.18-83.429h373.646l115.499 355.191L303 491.279z"/></g></svg>
